markets/ETH.svg

<svg width="42" height="42" viewBox="0 0 42 42" fill="none" xmlns="http://www.w3.org/2000/svg">
<g clip-path="url(#clip0_7277_55687)">
<path d="M21 42C32.598 42 42 32.598 42 21C42 9.40202 32.598 0 21 0C9.40202 0 0 9.40202 0 21C0 32.598 9.40202 42 21 42Z" fill="#627EEA"/>
<path d="M21.6537 5.25V16.8919L31.4936 21.2887L21.6537 5.25Z" fill="white" fill-opacity="0.602"/>
<path d="M21.6536 5.25L11.8125 21.2887L21.6536 16.8919V5.25Z" fill="white"/>
<path d="M21.6537 28.8329V36.7433L31.5001 23.1208L21.6537 28.8329Z" fill="white" fill-opacity="0.602"/>
<path d="M21.6536 36.7433V28.8315L11.8125 23.1208L21.6536 36.7433Z" fill="white"/>
<path d="M21.6537 27.0021L31.4936 21.2888L21.6537 16.8945V27.0021Z" fill="white" fill-opacity="0.2"/>
<path d="M11.8125 21.2888L21.6536 27.0021V16.8945L11.8125 21.2888Z" fill="white" fill-opacity="0.602"/>
</g>
<defs>
<clipPath id="clip0_7277_55687">
<rect width="42" height="42" fill="white"/>
</clipPath>
</defs>
</svg>

<svg xmlns="http://www.w3.org/2000/svg" width="42" height="42" fill="none"><g clip-path="url(#a)"><path fill="#627EEA" d="M21 42c11.598 0 21-9.402 21-21S32.598 0 21 0 0 9.402 0 21s9.402 21 21 21Z"/><path fill="#fff" fill-opacity=".602" d="M21.654 5.25v11.642l9.84 4.397-9.84-16.039Z"/><path fill="#fff" d="m21.654 5.25-9.841 16.039 9.84-4.397V5.25Z"/><path fill="#fff" fill-opacity=".602" d="M21.654 28.833v7.91L31.5 23.121l-9.846 5.712Z"/><path fill="#fff" d="M21.654 36.743v-7.912l-9.841-5.71 9.84 13.622Z"/><path fill="#fff" fill-opacity=".2" d="m21.654 27.002 9.84-5.713-9.84-4.395v10.108Z"/><path fill="#fff" fill-opacity=".602" d="m11.813 21.289 9.84 5.713V16.895l-9.84 4.394Z"/></g><defs><clipPath id="a"><path fill="#fff" d="M0 0h42v42H0z"/></clipPath></defs></svg>
